X: 10739
T: Dr. Gilbert's
R: reel
M: 4/4
K: Eminor
gf|:eBBA A~B3|dBAc BAGF|EDB,D G2 FG|EDB,E DB,A,G,|
B,E (3EEE EDB,D|GE (3EEE EFGA|(3Bcd ed Bdgb|afdf efgf:|
|:e~B3 g~B3|defg afdf|(3ggg bg fgaf|egfd e~B3|
afdf edB^c|dBAF FEDF|EAcA Bdgb|afdf efgf:|

